lib/assets/icons/svg/outlined-action-mic.svg

<svg xmlns="http://www.w3.org/2000/svg" viewBox="0 0 24 24"><path d="M11.89 13.866h.183a2.47 2.47 0 0 0 2.314-2.606V5.114c-.118-1.981-2.338-3.091-3.995-1.999a2.584 2.584 0 0 0-1.154 1.999v6.164a2.653 2.653 0 0 0 2.652 2.588zm0 .914a3.575 3.575 0 0 1-3.566-3.493V5.114C8.461 2.429 11.455.9 13.712 2.361a3.496 3.496 0 0 1 1.589 2.753v6.081a3.375 3.375 0 0 1-3.173 3.576h-.238zm.467 6.511h3.932a.458.458 0 0 1 0 .914H7.437a.457.457 0 1 1 0-.914h4.005v-3.855a6.404 6.404 0 0 1-5.843-6.332V8.16a.458.458 0 1 1 .914 0v2.944a5.486 5.486 0 0 0 5.441 5.441h.101c3 0 5.432-2.432 5.432-5.432V8.16a.457.457 0 1 1 .914 0v2.953a6.356 6.356 0 0 1-6.044 6.339z"/></svg>

<svg viewBox="0 0 24 24" xmlns="http://www.w3.org/2000/svg">
  <path  d="M 11.89 13.866 L 12.073 13.866 C 13.43 13.782 14.464 12.617 14.387 11.26 L 14.387 5.114 C 14.269 3.133 12.049 2.023 10.392 3.115 C 9.715 3.563 9.287 4.303 9.238 5.114 L 9.238 11.278 C 9.273 12.717 10.45 13.866 11.89 13.866 Z M 11.89 14.78 C 9.951 14.776 8.369 13.226 8.324 11.287 L 8.324 5.114 C 8.461 2.429 11.455 0.9 13.712 2.361 C 14.653 2.971 15.243 3.995 15.301 5.114 L 15.301 11.195 C 15.415 13.06 13.993 14.663 12.128 14.771 L 11.89 14.771 Z M 12.357 21.291 L 16.289 21.291 C 16.641 21.291 16.86 21.672 16.685 21.977 C 16.603 22.119 16.452 22.205 16.289 22.205 L 7.437 22.205 C 7.085 22.205 6.865 21.824 7.041 21.52 C 7.122 21.378 7.273 21.291 7.437 21.291 L 11.442 21.291 L 11.442 17.436 C 8.186 17.154 5.623 14.433 5.599 11.104 L 5.599 8.16 C 5.599 7.907 5.804 7.702 6.056 7.702 C 6.308 7.702 6.513 7.907 6.513 8.16 L 6.513 11.104 C 6.538 14.099 8.959 16.52 11.954 16.545 L 12.055 16.545 C 15.055 16.545 17.487 14.113 17.487 11.113 L 17.487 8.16 C 17.487 7.907 17.691 7.702 17.944 7.702 C 18.196 7.702 18.401 7.907 18.401 8.16 L 18.401 11.113 C 18.396 14.515 15.72 17.289 12.357 17.452 Z" style=""/>
</svg>
